X:103
T:Care thou Canker. JJo.103
S:J.Jones MS,1801,N.Shrops.
N:The A and B parts seem to be the same.
N:May or may not be intentional.
A:N Shropshire
Z:Neil Brookes 2006
M:4/4
L:1/8
Q:1/4=160
K:G
d3ed2g2|d2c2c2B2|G3BB2A2|A2Ac c2B2|!
d3ed2g2|d2c2c2B2|G3BA2(3ABc|B2TA2G4::!
d3ed2g2|d2c2c2B2|G3BB2A2|A2Ac c2B2|!
d3ed2g2|d2c2c2B2|G3BA2(3ABc|B2TA2G4:|

